X:083
T: Doubaling
N: O'Farrell's Pocket Companion v.1 (Sky ed. p.23)
D: O'Sullivan Meets O'Farrell track 11a
% Meaning of title ... ?
M: 6/8
L: 1/8
R: jig
Q: 320
K: D
e/d/|c2A AEA|c2A AEA|B2c ded|B2G GAB|
c2c d2d| efe efg|a2e e2d|c2A A2 :|
e|aba efg| f2d ded|BcB g2d|B2G GAB|
c2c d2d| efe efg|a2e e2d|c2A A2 :|
